src/main/resources/icons/RubyIcons/icons/ruby/debugger/blockBreakpoint.svg

<svg xmlns="http://www.w3.org/2000/svg" width="12" height="12" viewBox="0 0 12 12">
  <g fill="none" fill-rule="evenodd">
    <path fill="#DB5860" d="M5.0844,12 C2.6688,11.5514019 1.9956,10.6542056 1.9956,9.22429907 C1.9956,9.01401869 2.0352,8.4953271 2.0352,8.25700935 C2.0352,7.1635514 1.6128,6.81308411 0.5832,6.81308411 L0,6.81308411 L0,5.18691589 L0.5832,5.18691589 C1.6128,5.18691589 2.0352,4.8364486 2.0352,3.74299065 C2.0352,3.5046729 1.9956,2.98598131 1.9956,2.77570093 C1.9956,1.34579439 2.6688,0.448598131 5.0844,0 L5.4408,1.41588785 C4.0416,1.8364486 3.8304,2.22897196 3.8304,3.08411215 C3.8304,3.36448598 3.87,3.8271028 3.87,4.12149533 C3.87,5.14485981 3.3816,5.69158879 2.4972,6 C3.3816,6.30841121 3.87,6.85514019 3.87,7.87850467 C3.87,8.1728972 3.8304,8.63551402 3.8304,8.91588785 C3.8304,9.77102804 4.0416,10.1635514 5.4408,10.5841121 L5.0844,12 Z"/>
    <path fill="#DB5860" d="M11.6444,12 C9.2288,11.5514019 8.5556,10.6542056 8.5556,9.22429907 C8.5556,9.01401869 8.5952,8.4953271 8.5952,8.25700935 C8.5952,7.1635514 8.1728,6.81308411 7.1432,6.81308411 L6.56,6.81308411 L6.56,5.18691589 L7.1432,5.18691589 C8.1728,5.18691589 8.5952,4.8364486 8.5952,3.74299065 C8.5952,3.5046729 8.5556,2.98598131 8.5556,2.77570093 C8.5556,1.34579439 9.2288,0.448598131 11.6444,0 L12.0008,1.41588785 C10.6016,1.8364486 10.3904,2.22897196 10.3904,3.08411215 C10.3904,3.36448598 10.43,3.8271028 10.43,4.12149533 C10.43,5.14485981 9.9416,5.69158879 9.0572,6 C9.9416,6.30841121 10.43,6.85514019 10.43,7.87850467 C10.43,8.1728972 10.3904,8.63551402 10.3904,8.91588785 C10.3904,9.77102804 10.6016,10.1635514 12.0008,10.5841121 L11.6444,12 Z" transform="matrix(-1 0 0 1 18.56 0)"/>
  </g>
</svg>

<svg xmlns="http://www.w3.org/2000/svg" width="12" height="12" viewBox="0 0 12 12"><rect id="frame" width="12" height="12" fill="none"/><g fill="#DB5860" fill-rule="evenodd"><path d="M5.084 12c-2.415-.449-3.088-1.346-3.088-2.776 0-.21.04-.729.04-.967 0-1.093-.423-1.444-1.453-1.444H0V5.187h.583c1.03 0 1.452-.35 1.452-1.444 0-.238-.04-.757-.04-.967 0-1.43.674-2.327 3.09-2.776l.356 1.416c-1.4.42-1.61.813-1.61 1.668 0 .28.039.743.039 1.037 0 1.024-.488 1.57-1.373 1.879.885.308 1.373.855 1.373 1.879 0 .294-.04.757-.04 1.037 0 .855.212 1.248 1.61 1.668L5.085 12z"/><path d="M6.916 12c2.415-.449 3.088-1.346 3.088-2.776 0-.21-.04-.729-.04-.967 0-1.093.423-1.444 1.453-1.444H12V5.187h-.583c-1.03 0-1.452-.35-1.452-1.444 0-.238.04-.757.04-.967 0-1.43-.674-2.327-3.09-2.776L6.56 1.416c1.4.42 1.61.813 1.61 1.668 0 .28-.039.743-.039 1.037 0 1.024.488 1.57 1.373 1.879-.885.308-1.373.855-1.373 1.879 0 .294.04.757.04 1.037 0 .855-.212 1.248-1.61 1.668L6.915 12z"/></g></svg>
